Hatter-kde/actions/24/text-speak.svg

<?xml version="1.0" encoding="UTF-8"?>
<svg viewBox="0 0 24 24" xmlns="http://www.w3.org/2000/svg">
 <defs id="defs3051">
  <style id="current-color-scheme" type="text/css">.ColorScheme-Text {
        color:#363636;
      }</style>
 </defs>
 <path class="ColorScheme-Text" d="m7 4v7h8v3l3-3v-7h-11zm1 1h9v5h-9v-5zm2 7-3 2.5h-1v3h1l3 2.5h0.5 0.5v-8h-0.5-0.5z" fill="currentColor"/>
</svg>

<svg xmlns="http://www.w3.org/2000/svg" viewBox="0 0 24 24">
  <defs id="defs3051">
    <style type="text/css" id="current-color-scheme">
      .ColorScheme-Text {
        color:#363636;
      }
      </style>
  </defs>
 <path style="fill:currentColor;fill-opacity:1;stroke:none" 
     d="M 7 4 L 7 11 L 15 11 L 15 14 L 18 11 L 18 4 L 7 4 z M 8 5 L 17 5 L 17 10 L 8 10 L 8 5 z M 10 12 L 7 14.5 L 6 14.5 L 6 17.5 L 7 17.5 L 10 20 L 10.5 20 L 11 20 L 11 12 L 10.5 12 L 10 12 z "
     class="ColorScheme-Text"
     />
</svg>
